X: 14177
T: Frost Is All Over, The
R: jig
M: 6/8
K: Dmajor
def edc|dAF GFE|DFA DFA|Bcd edc|
def edc|dAF GFE|DFA DFA|1 Bdc d2A:|2 Bdc d2e||
~f3 afd|~g3 bag|~f3 afd|gfg efg|
~f3 afd|~g3 bag|fga efg|fdc d2e|
~f3 afd|~g3 bag|~f3 afd|~g3 e2g|
fga efg|fdB AFA|Bcd ede|fdc d3||

